X:1
T:Turlough O'Carolan (1670 - 1738) Arr.Marieh 
T:John Nugent
%%score { ( 1 2 ) ( 3 4 ) }
L:1/8
Q:3/8=56
M:6/8
K:F
V:1 treble-8 nm="Guitare classique"
V:2 treble-8 
V:3 tab stafflines=6 strings=D2,A2,D3,G3,A3,D4 nm="Guitare acoustique (Tablature)"
V:4 tab stafflines=6 strings=D2,A2,D3,G3,A3,D4 
V:1
 d2 e f2 g | f2 d cAF |"^(*)" G>gg gfg | a3 d3 | fga dfd | fga AcA | G>DG FGF | c3 A3 :: d2 e fed | %9
 fga AGA | f2 g a2 b | c'3 b2 a | gdg gdg | a2 a A2 A | c>dc AFA | f3 d3 :: cAF cAF | =B>cd cAc | %18
 d2 d efg | e3 c3 | (d/e/)fd (e/f/)ge | (d/e/)fd cAc | AFA AFA |"_* Orig." f3 d3 :| %24
V:2
 D2 ^C D2 E | D2 G A,3 | D3 G3 | DFG A2 A, | D3 D3 | A,3 F3 | G,6 | A,3 F3 :: D3 D3 | D3 F3 | %10
 D3 F3 | E2 F G3 | B3 G3 | [FA]3 F3 | E3 A,3 | D6 :: A,6 | G3 A,3 | D3 D3 | G3 E3 | F3 G3 | %21
 D3 A,3 | C3 A,3 | D6 :| %24
V:3
"^Guitar DADGAD" !1!D2 !1!E !1!F2 !1!G | !1!F2 !1!D !2!C!3!A,!4!F, | !3!G,>!1!G!1!G !1!G!1!F!1!G | %3
 !1!A3 !1!D3 | !1!F!1!G!1!A !1!D!1!F!1!D | !1!F!1!G!1!A !2!A,!2!C!3!A, | %6
 !3!G,>!4!D,!3!G, !4!F,!3!G,!4!F, | !2!C3 !3!A,3 :: !1!D2 !1!E !1!F!1!E!1!D | %9
 !1!F!1!G!1!A !2!A,!3!G,!2!A, | !1!F2 !1!G !1!A2 !1!B | !1!c3 !1!B2 !1!A | %12
 !1!G!1!D!1!G !1!G!1!D!1!G | !1!A2 !1!A !2!A,2 !2!A, | !2!C>!1!D!2!C !3!A,!4!F,!3!A, | %15
 !1!F3 !1!D3 :: !2!C!3!A,!4!F, !2!C!3!A,!4!F, | !2!=B,>!2!C!1!D !2!C!3!A,!2!C | %18
 !1!D2 !1!D !1!E!1!F!1!G | !1!E3 !2!C3 | (!1!D/!1!E/)!1!F!1!D (!1!E/!1!F/)!1!G!1!E | %21
 (!1!D/!1!E/)!1!F!1!D !2!C!3!A,!2!C | !3!A,!4!F,!3!A, !3!A,!4!F,!3!A, | !1!F3 !1!D3 :| %24
V:4
 !4!D,2 !5!^C, !4!D,2 !4!E, | !4!D,2 !3!G, !5!A,,3 | !4!D,3 !3!G,3 | %3
 !4!D,!5!F,!3!G, !3!A,2 !5!A,, | !4!D,3 !4!D,3 | !5!A,,3 !4!F,3 | !6!G,,6 | !5!A,,3 !4!F,3 :: %8
 !4!D,3 !4!D,3 | !4!D,3 !4!F,3 | !4!D,3 !5!F,3 | !5!E,2 !5!F, !3!G,3 | !3!B,3 !3!G,3 | %13
 [!5!F,!2!A,]3 !5!F,3 | !4!E,3 !5!A,,3 | !4!D,6 :: !5!A,,6 | !3!G,3 !5!A,,3 | !4!D,3 !4!D,3 | %19
 !3!G,3 !4!E,3 | !4!F,3 !3!G,3 | !4!D,3 !5!A,,3 | !5!C,3 !5!A,,3 | !4!D,6 :| %24

